X:1
T:Title
%%score { ( 1 3 ) | ( 2 4 ) }
L:1/8
M:6/8
K:F
V:1 treble nm="Grand Piano"
V:3 treble 
V:2 bass 
V:4 bass 
V:1
 z3 z2[Q:1/4=84] A | G2 A z GA | [FB]2 [Fd] [Fc]2 [FA] | [EG]2 [EA] [DF]G[A,FA] | %4
[M:5/8] [=B,D]2 [B,DF] [CE]2 |[M:1/8] [CEA] |[M:3/4] z2 z .F3 | [B,FB]2 [_Ec] [Dd]3 | %8
 [DFG]3 [CEA]2 [B,EG] |[M:5/8] [A,F]-[A,F]- [A,F]3 |] %10
V:2
 z3 z2 [F,C] | [F,B,]2 [F,C] A,B,[F,CF] | [D,B,]2 [B,,B,] [F,A,]2 [F,C] | [C,B,]2 [C,C] z ED, | %4
[M:5/8] G,2 G, C,2 |[M:1/8] C, |[M:3/4] z2 z .F,3 | D,2 [C,A,] [B,,B,]3 | B,,3 C,2 C, | %9
[M:5/8] F,-F,- F,3 |] %10
V:3
 x6 | z3 .F3 | x6 | x6 |[M:5/8] x5 |[M:1/8] x |[M:3/4] [B,EG]2 [CEA]A, G[CFA] | x6 | x6 | %9
[M:5/8] x5 |] %10
V:4
 x6 | z3 .F,3 | x6 | z3 .[D,A,]3 |[M:5/8] x5 |[M:1/8] x |[M:3/4] C,2 .C,2 B,_E, | x6 | x6 | %9
[M:5/8] x5 |] %10

